X: 45
T: The Dawn
T: Twilight in Portroe
M:C|
L:1/8
C:Sean Ryan
R:reel
D:De Dannan: Mist Covered Mountain.
K:A
|: A,2CE D2FD | E2GB ~A3c | d2fd edcA |1,3 ~B3c BAEC :|2,4 B2AB cAA2 :|
|: c2ec  fcec | A2Ac BAFD | E2EF ABcA |1,3 defg aefe :|2,4 dfed cAA2 :|
%%sep 3 1 500
